X:1
T:G minor Oliver Holden, 1806
T:James Boden, 1801 66. 66. 88.
T:Gospel Voice
T:Transcribed from The Psalmodist's Assistant, 1806.
%%score [ 1 2 3 4 ]
L:1/8
M:4/4
K:Bb
V:1 treble nm="Treble" snm="Tr."
V:2 treble nm="Counter" snm="C."
V:3 treble-8 nm="Tenor" snm="T."
V:4 bass nm="Bass" snm="B."
V:1
 G4 | BA G^F G2 AG | ^F4 F4 | G2 c2 B2 A2 | B8 | B4 c2 B2 | A2 c2 B4 || A4 GA BA | G4 ^F4 | G8 | %10
w: 1.~Ye|dy- * ing * sons of *|men, Im-|mersed in sin and|woe,|The gos- pel's|voice at- tend,|While Je- * sus *|sends to|you:|
 z4 d4 | d2 d2 d2 B2 | G2 A2 B4 || d4 c2 d2 | f6 BA | G4 d4 | d8 |] %17
w: Ye|pe- rish- ing and|guil- ty come,|In Je- sus'|arms there *|yet is|room.|
V:2
 D4 | D2 D2 D2 D2 | D4 D4 | D2 E2 D2 D2 | D8 | G4 F2 F2 | F2 F2 F4 || F4 D2 F2 | D4 D4 | D8 | %10
w: 2.~No|lon- ger now de-|lay, Nor|vain ex- cu- ses|frame;|He bids you|come to- day,|Though poor and|blind and|lame:|
 z4 G4 | ^F2 F2 F2 G2 | D2 E2 D4 || B,4 F2 F2 | F6 F2 | D4 ^F4 | G8 |] %17
w: All|things are rea- dy,|sin- ners come,|For eve- ry|trem- bling|soul there's|room.|
V:3
 G4 | G^F GA B2 cB | A4 A4 | B2 A2 G2 ^F2 | G8 | d4 c2 d2 | f2 e2 d4 || c4 Bc dc | B4 A4 | G8 | %10
w: 3.~Be-|lieve * the * heav'n- ly *|word His|mes- sen- gers pro-|claim;|He is a|gra- cious Lord,|And faith- * ful *|is his|name:|
 z4 B4 | A2 A2 A2 GA | B2 c2 d4 || f4 e2 d2 | c6 dc | B4 A4 | G8 |] %17
w: Back-|sli- ding souls, re- *|turn and come,|Cast off des-|pair, there *|yet is|room.|
V:4
 G,4 | D,2 D,2 G,2 ^F,2 | D,4 D,4 | B,,2 C,2 D,2 D,2 | G,8 | G,4 A,2 B,2 | F,2 F,2 B,4 || %7
w: 4.~Com-|pelled by blee- ding|love, Ye|wan- dering sheep draw|near;|Christ calls you|from a- bove,|
 F,4 D,C, B,,C, | D,4 D,4 | G,8 | z4 G,4 | D,2 D,2 D,2 G,2 | D,2 C,2 B,,4 || B,,4 C,2 B,,2 | %14
w: His char- * ming *|ac- cents|hear!|Let|who- so- ev- er|will now come:|In mer- cy's|
 F,6 B,,C, | D,4 D,4 | [G,,G,]8 |] %17
w: arms there *|still is|room.|

